X: 1
T: Cheese
T: Leather Away the Wattle O
T: the Lisdoonvarna Polka
R: march
Z: 2020 John Chambers <jc:trillian.mit.edu>
S: https://www.facebook.com/groups/Fiddletuneoftheday/
S: https://www.facebook.com/groups/Fiddletuneoftheday/photos/
M: 2/4
L: 1/8
K: D
A |:\
"D"dA FA | de fe/f/ | "A"ed cd | "Em"ef gf/g/ |\
"D"af g/f/e | dc AF | "G"GB A/B/A/G/ |1 "D"FD D2 :|2 "D"FD De ||
|:\
"D"ff/f/ fe | "G"g2 g2 | "D"ff/f/ fa | "Em"gf ef/g/ |\
"D"af g/f/e | dc AF | "G"GB A/B/A/G/ |1 "D"FD De :|2 "D"FD D2 |]
